Obsidian-SemiLight/actions/24s/format-text-blockquote.svg

<svg viewBox="0 0 24 24" xmlns="http://www.w3.org/2000/svg"><path d="m11 7a2 2 0 0 0 -2 2v1 2h2v-2h-1v-1a1 1 0 0 1 1-1zm4 0a2 2 0 0 0 -2 2v1 2h2v-2h-1v-1a1 1 0 0 1 1-1z" fill="#4d4d4d"/></svg>

<svg xmlns="http://www.w3.org/2000/svg" viewBox="0 0 24 24">
  <defs id="defs3051">
    <style type="text/css" id="current-color-scheme">
      .ColorScheme-Text {
        color:#4d4d4d;
      }
      </style>
  </defs>
 <path style="fill:currentColor;fill-opacity:1;stroke:none" 
     d="M 11 7 A 2 2 0 0 0 9 9 L 9 10 L 9 12 L 11 12 L 11 10 L 10 10 L 10 9 A 1 1 0 0 1 11 8 L 11 7 z M 15 7 A 2 2 0 0 0 13 9 L 13 10 L 13 12 L 15 12 L 15 10 L 14 10 L 14 9 A 1 1 0 0 1 15 8 L 15 7 z "
     class="ColorScheme-Text"
     />
</svg>
